X: 1
T:Gan Ainm
M:C|
L:1/8
S:Skylark "Raining Bicycles"
R:Reel
K:ADor
c2 Gc acgc|c2 ge dBAB|~c3 d ec (3efg|aged cAAB|!
c2 Gc acgc|c2 ge dcBc|~A3 B ~c3 g|aged cABG||!
~E2 DE CA, ~A,2|EDCD EGAB|~c3 d ec (3efg|aged cABG|!
~E2 DE CA, ~A,2|EDCD EGAB|~c3 d ec (3efg|aged cAAB||
